X:178
T:Waterloo
O:No 178 William Clarke of Feltwell
M:4/4
L:1/8
N:In m.s each phrase ends with an extra crotchet
K:G
c2|BG GG/G/c2Ac|BG GG/G/A2DA|BG GG/G/c2Ac|BGAFG2::c2|Bddge2dc|B2AG FG/A/D2|Bddg egdg|BGAFG2::c2|BGGB cAAc|BGGB ADDc|BGGB cAAc|BGAFG2::c2|Bddg ecce|BGGB ADDc|Bddg egdg|BGAFG2:|

